X:1
T:Title
%%score { ( 1 3 5 ) | ( 2 4 ) }
L:1/8
M:4/4
K:Ab
V:1 treble nm="Grand Piano"
V:3 treble 
V:5 treble 
V:2 bass 
V:4 bass 
V:1
 z4 z2[Q:1/4=100] [CE]>[CE] | [CA]2 [CG]2 [CF]2 C2 | E4 z4 | [Dd]2 [Dc]2 [DB]2 [DF]2 | G6 z2 | %5
 [CA]2 [CG]2 [CF]2 C2 | C2 D2 E2 B>B | B2 B>c B2 B>c | B6 z2 | d2 c2 B2 c2 | z2 z F E2 c>c | %11
 c2 GA BAGF | c2 [cc']>[cc'] [cc']2 c>c | c2 F2 d2 c2 | B2 z2 z4 | c2 c2 edG-[GB] |[M:3/4] [CA]6 | %17
[M:4/4] C2- [C-c]2 [C-E]2 [CA]2 | z4 G4 | G2 d2 F2 G2 | F2 E>=D E4 | E2 c2 E2 A2 | A2 G>F G4 | %23
 [DGB]2 [C_G=A]2 [D=GB]2 [C_GA]2 | [DGB]2 e>e d2 B2 | E2 c2 E2 A2 | z4 G4 | G2 d2 F2 G2 | z4 E4 | %29
 A2 E2 c2 A2 | [Ad]4 [A=d]4 | [Af]2 [Ae]>[Ac] A2 c2 |[M:3/4] B4 [CA]2 |] %33
V:2
 z4 z2 [A,,E,]>[A,,E,] | [A,,E,]2 [A,,E,]2 [A,,E,]2 [A,,E,]2 | %2
 [A,,A,]2 [B,,G,]2 [C,A,C]2 [A,,A,]>[A,,A,] | [B,,F,]2 [B,,F,]2 [B,,F,]2 [B,,B,]2 | [B,D]2 z2 z4 | %5
 [A,,E,]2 [A,,E,]2 [A,,E,]2 [A,,E,]2 | [A,,A,]2 [B,,G,]2 [C,A,C]2 B,>B, | [G,B,E]4 [A,B,=D]4 | %8
 [G,B,E]2 [F,B,]2 [E,G,]2 z2 | [E,G,D]2 [E,G,D]2 [E,G,D]2 [E,G,D]2 | %10
 [E,A,C]2 [E,A,]2 [E,A,C]2[K:treble] C>C | C2 G,A,[K:bass] B,A,G,F, | C2 [C,C]>[C,C] [C,C]2 C>C | %13
 [F,=A,E]2 [F,A,E]2 [F,A,E]2 [F,A,E]2 | [B,,B,]4 [=E,_C=D]2 [E,CD]>[E,CD] | %15
 [E,A,E]2 [E,A,E]2 [E,G,E]2 z D |[M:3/4] A,6 |[M:4/4] z2 E,2 A,2 E,2 | z2 E,2 B,2 z2 | %19
 z2 G,2 B,2 G,2 | z2 E,2 A,2 E,2 | z2 E,2 A,2 E,2 | z2 E,2 B,2 E,2 | E,2 E,2 E,2 E,2 | %24
 E,2 E>E D2 B,2 | z2 E,2 A,2 E,2 | z2 E,2 B,2 z2 | z2 A,2 B,2 G,2 | z2 E,2 A,2 z2 | %29
 [A,CE]2 [A,C]2 [_G,CE]2 [G,CE]2 | [F,D]4 [=E,_C]4 | [E,C]2 [E,C]>[E,C] [E,CE]2 [E,A,E]2 | %32
[M:3/4] [E,G,D]4 [A,,A,]2 |] %33
V:3
 x8 | x8 | C2 D2 E2 [CE]>[CE] | x8 | z2 F2 E2 E>E | x8 | E4 z4 | x8 | z2 =D2 _D2 E>E | x8 | A4 z4 | %11
 x8 | x8 | x8 | D2- [DF]2 A2 A>B | z4 z2 .[Ec]2 |[M:3/4] x6 |[M:4/4] E2 z2 z4 | A2 G>F z2 E,2 | %19
 x8 | C8 | C8 | D8 | x8 | x8 | C8 | A2 G>F z2 E,2 | x8 | F2 E>=D z2 E,2 | x8 | x8 | x8 | %32
[M:3/4] x6 |] %33
V:4
 x8 | x8 | x8 | x8 | E,2- [E,-A,]2 [E,G,]2 [E,G,D]>[E,G,D] | x8 | x8 | x8 | x8 | x8 | %10
 x6[K:treble] x2 | x4[K:bass] x4 | x8 | x8 | x8 | z4 z2 E,2 |[M:3/4] x6 |[M:4/4] A,,8 | B,,8 | %19
 [E,D]8 | A,,8 | A,,8 | B,,8 | x8 | x8 | A,,8 | B,,8 | [E,D]8 | A,,8 | x8 | x8 | x8 |[M:3/4] x6 |] %33
V:5
 x8 | x8 | x8 | x8 | x8 | x8 | x8 | x8 | x8 | x8 | z2 C2 z4 | x8 | x8 | x8 | x8 | x8 |[M:3/4] x6 | %17
[M:4/4] x8 | D8 | x8 | x8 | x8 | x8 | x8 | x8 | x8 | D8 | x8 | C8 | x8 | x8 | x8 |[M:3/4] x6 |] %33

